styles/3/Numix/24/places/custom-folder-copy.svg

<?xml version="1.0" encoding="UTF-8" standalone="no"?>
<svg
   xmlns:dc="http://purl.org/dc/elements/1.1/"
   xmlns:cc="http://creativecommons.org/ns#"
   xmlns:rdf="http://www.w3.org/1999/02/22-rdf-syntax-ns#"
   xmlns:svg="http://www.w3.org/2000/svg"
   xmlns="http://www.w3.org/2000/svg"
   xmlns:sodipodi="http://sodipodi.sourceforge.net/DTD/sodipodi-0.dtd"
   xmlns:inkscape="http://www.inkscape.org/namespaces/inkscape"
   width="24"
   height="24"
   viewBox="0 0 24 24"
   id="svg2"
   version="1.1"
   inkscape:version="0.91 r"
   sodipodi:docname="custom-folder-copy.svg">
  <metadata
     id="metadata20">
    <rdf:RDF>
      <cc:Work
         rdf:about="">
        <dc:format>image/svg+xml</dc:format>
        <dc:type
           rdf:resource="http://purl.org/dc/dcmitype/StillImage" />
      </cc:Work>
    </rdf:RDF>
  </metadata>
  <defs
     id="defs18" />
  <sodipodi:namedview
     pagecolor="#ffffff"
     bordercolor="#666666"
     borderopacity="1"
     objecttolerance="10"
     gridtolerance="10"
     guidetolerance="10"
     inkscape:pageopacity="0"
     inkscape:pageshadow="2"
     inkscape:window-width="1280"
     inkscape:window-height="998"
     id="namedview16"
     showgrid="true"
     inkscape:zoom="21.454546"
     inkscape:cx="10.330302"
     inkscape:cy="16.774208"
     inkscape:window-x="0"
     inkscape:window-y="0"
     inkscape:window-maximized="1"
     inkscape:current-layer="svg2">
    <inkscape:grid
       type="xygrid"
       id="grid2997"
       empspacing="5"
       visible="true"
       enabled="true"
       snapvisiblegridlinesonly="true" />
  </sodipodi:namedview>
  <rect
     style="fill:replacecolour2;fill-opacity:1;stroke:none"
     id="rect3757-6"
     width="10.999999"
     height="4.0000005"
     x="2.0062504"
     y="4.9999809" />
  <path
     style="fill:replacecolour2;fill-opacity:1;stroke:none"
     d="m 3.00625,4.9999816 c 0,-0.500001 0,-1 0.727273,-1 l 2.545455,0 c 0.727272,0 0.727272,0.499999 0.727272,1 z"
     id="path3759-8"
     inkscape:connector-curvature="0"
     sodipodi:nodetypes="ccccc" />
  <rect
     y="5.9999809"
     x="3.0062501"
     height="4.0000005"
     width="9"
     id="rect3763-0"
     style="fill:#d8d8da;fill-opacity:1;stroke:none" />
  <rect
     style="fill:#f9f9f9;fill-opacity:1;stroke:none"
     id="rect3761-6"
     width="8"
     height="2.2795949"
     x="4.0062499"
     y="6.9999809" />
  <path
     style="fill:replacecolour1;fill-opacity:1;stroke:none"
     d="m 1.00625,7.999982 13,0 -0.65,7.000018 -11.7,0 z"
     id="path2987-6"
     inkscape:connector-curvature="0"
     sodipodi:nodetypes="ccccc" />
  <path
     style="fill:#000000;fill-opacity:0.10196078;stroke:none"
     d="M 3.71875,4 C 2.991477,4 3,4.499999 3,5 L 2,5 2,8 1,8 1.65625,15 13.34375,15 14,8 13,8 13,5 7,5 C 7,4.499999 7.00852,4 6.28125,4 l -2.5625,0 z"
     id="rect3036"
     inkscape:connector-curvature="0" />
  <rect
     style="fill:replacecolour2;fill-opacity:1;stroke:none"
     id="rect3757"
     width="10.999999"
     height="4.0000005"
     x="11.00625"
     y="10.999982" />
  <path
     style="fill:replacecolour2;fill-opacity:1;stroke:none"
     d="m 12.00625,10.999982 c 0,-0.500001 0,-1 0.727273,-1 l 2.545455,0 c 0.727272,0 0.727272,0.499999 0.727272,1 z"
     id="path3759"
     inkscape:connector-curvature="0"
     sodipodi:nodetypes="ccccc" />
  <rect
     y="11.999982"
     x="12.00625"
     height="4.0000005"
     width="9"
     id="rect3763"
     style="fill:#d8d8da;fill-opacity:1;stroke:none" />
  <rect
     style="fill:#f9f9f9;fill-opacity:1;stroke:none"
     id="rect3761"
     width="8"
     height="2.2795949"
     x="13.00625"
     y="12.999982" />
  <path
     style="fill:replacecolour1;fill-opacity:1;stroke:none"
     d="m 10.00625,13.999982 13,0 -0.65,7.000018 -11.7,0 z"
     id="path2987"
     inkscape:connector-curvature="0"
     sodipodi:nodetypes="ccccc" />
</svg>

<svg xmlns="http://www.w3.org/2000/svg" viewBox="0 0 24 24">
 <rect width="11" height="4" x="2.01" y="5" style="fill:replacecolour2;fill-opacity:1;stroke:none"/>
 <path d="m 3.01 5 c 0 -0.5 0 -1 0.727 -1 l 2.545 0 c 0.727 0 0.727 0.5 0.727 1 z" style="fill:replacecolour2;fill-opacity:1;stroke:none"/>
 <rect y="6" x="3.01" height="4" width="9" style="fill:#d8d8da;fill-opacity:1;stroke:none"/>
 <rect width="8" height="2.28" x="4.01" y="7" style="fill:#f9f9f9;fill-opacity:1;stroke:none"/>
 <path d="m 1.01 8 13 0 -0.65 7 -11.7 0 z" style="fill:replacecolour1;fill-opacity:1;stroke:none"/>
 <path d="m 3.719 4 c -0.727 0 -0.719 0.5 -0.719 1 l -1 0 0 3 -1 0 0.656 7 11.688 0 0.656 -7 -1 0 0 -3 -6 0 c 0 -0.5 0.009 -1 -0.719 -1 l -2.563 0 z" style="fill:#000;fill-opacity:0.102;stroke:none"/>
 <rect width="11" height="4" x="11.01" y="11" style="fill:replacecolour2;fill-opacity:1;stroke:none"/>
 <path d="m 12.01 11 c 0 -0.5 0 -1 0.727 -1 l 2.545 0 c 0.727 0 0.727 0.5 0.727 1 z" style="fill:replacecolour2;fill-opacity:1;stroke:none"/>
 <rect y="12" x="12.01" height="4" width="9" style="fill:#d8d8da;fill-opacity:1;stroke:none"/>
 <rect width="8" height="2.28" x="13.01" y="13" style="fill:#f9f9f9;fill-opacity:1;stroke:none"/>
 <path d="m 10.01 14 13 0 -0.65 7 -11.7 0 z" style="fill:replacecolour1;fill-opacity:1;stroke:none"/>
</svg>
